static/img/icons/logowhite.svg

<svg fill="none" viewBox=".26 .74 103.39 32.13" xmlns="http://www.w3.org/2000/svg"><g fill="#fff"><path d="m40.405 18.0084c0-1.7344 1.0781-2.7344 2.5937-2.7344 1.4844 0 2.3594.9453 2.3594 2.5625v7.2031h2.8281v-7.6406c0-2.8985-1.6406-4.5156-4.1328-4.5156-1.8437 0-3.0156.8359-3.5703 2.1953h-.1406v-6.03909h-2.7657v15.99999h2.8282z"/><path d="m55.9415 25.274c2.7969 0 4.7188-1.3672 5.2188-3.4531l-2.6406-.2969c-.3829 1.0156-1.3204 1.5469-2.5391 1.5469-1.8281 0-3.0391-1.2032-3.0625-3.2579h8.3594v-.8671c0-4.211-2.5313-6.0625-5.4844-6.0625-3.4375 0-5.6797 2.5234-5.6797 6.2265 0 3.7656 2.2109 6.1641 5.8281 6.1641zm-3.0156-7.3672c.0859-1.5313 1.2188-2.8203 2.9063-2.8203 1.625 0 2.7187 1.1875 2.7343 2.8203z"/><path d="m66.0582 9.03961h-2.8282v15.99999h2.8282z"/><path d="m68.5264 25.0396h2.8281v-12h-2.8281zm1.4218-13.7031c.8985 0 1.6329-.6875 1.6329-1.53126 0-.85157-.7344-1.53907-1.6329-1.53907-.9062 0-1.6406.6875-1.6406 1.53907 0 .84376.7344 1.53126 1.6406 1.53126z"/><path d="m81.4711 19.9927c0 1.8282-1.3046 2.7344-2.5546 2.7344-1.3594 0-2.2657-.9609-2.2657-2.4844v-7.2031h-2.8281v7.6406c0 2.8828 1.6406 4.5157 4 4.5157 1.7969 0 3.0625-.9454 3.6094-2.2891h.125v2.1328h2.7422v-12h-2.8282z"/><path d="m86.7675 25.0396h2.8281v-7.2969c0-1.4765.9844-2.4765 2.2031-2.4765 1.1953 0 2.0156.8047 2.0156 2.039v7.7344h2.7735v-7.4844c0-1.3515.8047-2.289 2.1719-2.289 1.1406 0 2.0473.6718 2.0473 2.1562v7.6172h2.835v-8.0547c0-2.6797-1.546-4.1015-3.7495-4.1015-1.7422 0-3.0703.8593-3.6016 2.1953h-.125c-.4609-1.3594-1.625-2.1953-3.2422-2.1953-1.6094 0-2.8125.8281-3.3125 2.1953h-.1406v-2.0391h-2.7031z"/><path d="m20.5945 9.09193c.9356-.93542 2.4587-.93542 3.3943 0 .9356.93547.9356 2.45837 0 3.39377-.5419.5418-1.2835.7871-2.0366.6787-.0342-.0057-.0741-.0057-.1084 0-.2225-.0285-.4564 0-.6788.1027-.3138.1426-.5363.405-.6447.7073-.1084.2966-.1027.6331.0399.9354.8044 1.7397.4336 3.8215-.9241 5.179-1.3578 1.3575-3.44 1.7283-5.18.9241-.3138-.1426-.6503-.1483-.9527-.0343-.2967.1084-.5477.3309-.6903.6389-.0913.1996-.1255.4049-.1141.6103-.0057.0399-.0057.0798 0 .1197.1255.7644-.1255 1.5458-.6731 2.0933-.9356.9355-2.45882.9355-3.39441 0-.45638-.4563-.70169-1.0552-.70169-1.6997 0-.6388.25101-1.2434.70169-1.6997.54196-.5419 1.28359-.7871 2.03661-.6788h.0399c.0799.0171.1598.0285.2453.0285.1769 0 .3537-.0342.5192-.114.308-.1426.5248-.3936.6389-.6845.1141-.3023.1141-.6445-.0342-.9582-.8044-1.7397-.4336-3.8216.9242-5.1791 1.3577-1.3575 3.44-1.7282 5.1799-.924.3081.1426.6504.1483.947.0399.2967-.1083.5534-.3308.696-.6388.1084-.2395.1369-.4962.097-.7415v-.0057c-.1255-.7643.1255-1.54571.6732-2.09327zm-2.3732 9.58237c1.0382-1.0381 1.0382-2.7207 0-3.7588-1.0383-1.0381-2.7212-1.0381-3.7595 0s-1.0383 2.7207 0 3.7588 2.7212 1.0381 3.7595 0zm-1.8997-17.93843c8.8709 0 16.0647 7.19249 16.0647 16.06193 0 8.8694-7.188 16.0675-16.0647 16.0675-8.87671 0-16.064764-7.1924-16.064764-16.0675 0-8.87515 7.193764-16.06193 16.064764-16.06193zm8.5629 12.64533c1.4205-1.4203 1.4205-3.71889 0-5.13914-1.4205-1.42024-3.7195-1.42024-5.14 0-.5249.52475-.8558 1.17499-.9927 1.85374-2.5728-.96965-5.5279-.35364-7.4961 1.6142-1.96815 1.9678-2.58427 4.9223-1.60875 7.5005-.68458.1369-1.33493.4677-1.86547.9981-1.4205 1.4203-1.4205 3.7189 0 5.1391 1.42049 1.4203 3.71952 1.4203 5.14002 0 .5306-.5304.8671-1.192.9983-1.8765.7987.2966 1.6316.4449 2.4588.4449 1.8427 0 3.6625-.713 5.0145-2.0648 1.9568-1.9564 2.5786-4.8938 1.6259-7.4662.6789-.1426 1.3349-.4735 1.8655-1.0039z"/></g></svg>

<svg width="104" height="33" viewBox="0 0 104 33" fill="none" xmlns="http://www.w3.org/2000/svg">
<path d="M40.405 18.0084C40.405 16.274 41.4831 15.274 42.9987 15.274C44.4831 15.274 45.3581 16.2193 45.3581 17.8365V25.0396H48.1862V17.399C48.1862 14.5005 46.5456 12.8834 44.0534 12.8834C42.2097 12.8834 41.0378 13.7193 40.4831 15.0787H40.3425V9.03961H37.5768V25.0396H40.405V18.0084Z" fill="white"/>
<path d="M55.9415 25.274C58.7384 25.274 60.6603 23.9068 61.1603 21.8209L58.5197 21.524C58.1368 22.5396 57.1993 23.0709 55.9806 23.0709C54.1525 23.0709 52.9415 21.8677 52.9181 19.813H61.2775V18.9459C61.2775 14.7349 58.7462 12.8834 55.7931 12.8834C52.3556 12.8834 50.1134 15.4068 50.1134 19.1099C50.1134 22.8755 52.3243 25.274 55.9415 25.274ZM52.9259 17.9068C53.0118 16.3755 54.1447 15.0865 55.8322 15.0865C57.4572 15.0865 58.5509 16.274 58.5665 17.9068H52.9259Z" fill="white"/>
<path d="M66.0582 9.03961H63.23V25.0396H66.0582V9.03961Z" fill="white"/>
<path d="M68.5264 25.0396H71.3545V13.0396H68.5264V25.0396ZM69.9482 11.3365C70.8467 11.3365 71.5811 10.649 71.5811 9.80524C71.5811 8.95367 70.8467 8.26617 69.9482 8.26617C69.042 8.26617 68.3076 8.95367 68.3076 9.80524C68.3076 10.649 69.042 11.3365 69.9482 11.3365Z" fill="white"/>
<path d="M81.4711 19.9927C81.4711 21.8209 80.1665 22.7271 78.9165 22.7271C77.5571 22.7271 76.6508 21.7662 76.6508 20.2427V13.0396H73.8227V20.6802C73.8227 23.563 75.4633 25.1959 77.8227 25.1959C79.6196 25.1959 80.8852 24.2505 81.4321 22.9068H81.5571V25.0396H84.2993V13.0396H81.4711V19.9927Z" fill="white"/>
<path d="M86.7675 25.0396H89.5956V17.7427C89.5956 16.2662 90.58 15.2662 91.7987 15.2662C92.994 15.2662 93.8143 16.0709 93.8143 17.3052V25.0396H96.5878V17.5552C96.5878 16.2037 97.3925 15.2662 98.7597 15.2662C99.9003 15.2662 100.807 15.938 100.807 17.4224V25.0396H103.642V16.9849C103.642 14.3052 102.096 12.8834 99.8925 12.8834C98.1503 12.8834 96.8222 13.7427 96.2909 15.0787H96.1659C95.705 13.7193 94.5409 12.8834 92.9237 12.8834C91.3143 12.8834 90.1112 13.7115 89.6112 15.0787H89.4706V13.0396H86.7675V25.0396Z" fill="white"/>
<path d="M20.5945 9.09193C21.5301 8.15651 23.0532 8.15651 23.9888 9.09193C24.9244 10.0274 24.9244 11.5503 23.9888 12.4857C23.4469 13.0275 22.7053 13.2728 21.9522 13.1644C21.918 13.1587 21.8781 13.1587 21.8438 13.1644C21.6213 13.1359 21.3874 13.1644 21.165 13.2671C20.8512 13.4097 20.6287 13.6721 20.5203 13.9744C20.4119 14.271 20.4176 14.6075 20.5602 14.9098C21.3646 16.6495 20.9938 18.7313 19.6361 20.0888C18.2783 21.4463 16.1961 21.8171 14.4561 21.0129C14.1423 20.8703 13.8058 20.8646 13.5034 20.9786C13.2067 21.087 12.9557 21.3095 12.8131 21.6175C12.7218 21.8171 12.6876 22.0224 12.699 22.2278C12.6933 22.2677 12.6933 22.3076 12.699 22.3475C12.8245 23.1119 12.5735 23.8933 12.0259 24.4408C11.0903 25.3763 9.56708 25.3763 8.63149 24.4408C8.17511 23.9845 7.9298 23.3856 7.9298 22.7411C7.9298 22.1023 8.18081 21.4977 8.63149 21.0414C9.17345 20.4995 9.91508 20.2543 10.6681 20.3626C10.6795 20.3626 10.6909 20.3626 10.708 20.3626C10.7879 20.3797 10.8678 20.3911 10.9533 20.3911C11.1302 20.3911 11.307 20.3569 11.4725 20.2771C11.7805 20.1345 11.9973 19.8835 12.1114 19.5926C12.2255 19.2903 12.2255 18.9481 12.0772 18.6344C11.2728 16.8947 11.6436 14.8128 13.0014 13.4553C14.3591 12.0978 16.4414 11.7271 18.1813 12.5313C18.4894 12.6739 18.8317 12.6796 19.1283 12.5712C19.425 12.4629 19.6817 12.2404 19.8243 11.9324C19.9327 11.6929 19.9612 11.4362 19.9213 11.1909V11.1852C19.7958 10.4209 20.0468 9.63949 20.5945 9.09193ZM18.2213 18.6743C19.2595 17.6362 19.2595 15.9536 18.2213 14.9155C17.183 13.8774 15.5001 13.8774 14.4618 14.9155C13.4235 15.9536 13.4235 17.6362 14.4618 18.6743C15.5001 19.7124 17.183 19.7124 18.2213 18.6743ZM16.3216 0.73587C25.1925 0.73587 32.3863 7.92836 32.3863 16.7978C32.3863 25.6672 25.1983 32.8653 16.3216 32.8653C7.44489 32.8653 0.256836 25.6729 0.256836 16.7978C0.256836 7.92265 7.4506 0.73587 16.3216 0.73587ZM24.8845 13.3812C26.305 11.9609 26.305 9.66231 24.8845 8.24206C23.464 6.82182 21.165 6.82182 19.7445 8.24206C19.2196 8.76681 18.8887 9.41705 18.7518 10.0958C16.179 9.12615 13.2239 9.74216 11.2557 11.71C9.28755 13.6778 8.67143 16.6323 9.64695 19.2105C8.96237 19.3474 8.31202 19.6782 7.78148 20.2086C6.36098 21.6289 6.36098 23.9275 7.78148 25.3477C9.20197 26.768 11.501 26.768 12.9215 25.3477C13.4521 24.8173 13.7886 24.1557 13.9198 23.4712C14.7185 23.7678 15.5514 23.9161 16.3786 23.9161C18.2213 23.9161 20.0411 23.2031 21.3931 21.8513C23.3499 19.8949 23.9717 16.9575 23.019 14.3851C23.6979 14.2425 24.3539 13.9116 24.8845 13.3812Z" fill="white"/>
</svg>
